X: 37474
T: Slide From Grace
R: slip jig
M: 9/8
K: Bminor
|:~d2B BAB def|~d2B BAF A2B|~d2B BAB def|1 f2e2 ede2 f:|2 f2e2ed ef(a||
b)2f afe def|~AAA AFA def|b2f afe def|f2e2 ed ef(a|
b)2f afe def|~AAA AFA def|e2d efd ef2|zf(a b)af e2f||

